!!!!SEGMENT: pl-cz--iii-106--007_dankowski-wojciech--missa-e-osanna.krn
!!!cenid: 18xx:758
!!!COM: Dankowski, Wojciech
!!!COM-rismid:
!!!CDT:
!!!CNT:
!!!OPR: Missa E
!!!OTL: Osanna
!!!OMV: 007
!!!PDT:
!!!AGN: Sacred; Mass
!!!SMS-siglum: PL-CZ
!!!SMS-shelfmark: III-106
!!!SMS-shelfwork: 001-007 M
!!!SMS-variant:
!!!SMS-altvar:
!!!NIFC-rismid: 300000111
!!!URL-scan: http://repozytorium.nifc.pl/skany/pl-cz-nut--iii-106
!!!ONB-nifc: UWAGA: części Mszy: Kyrie, Gloria, Patrem, Et resurrexit, Sanctus, Benedictus,
!!!key: D
**kern	**fba	**kern	**kern	**kern	**text	**kern	**text	**kern	**text	**kern	**text	**kern	**kern
*part9	*part9	*part8	*part7	*part6	*part6	*part5	*part5	*part4	*part4	*part3	*part3	*part2	*part1
*staff9	*staff9	*staff8	*staff7	*staff6	*staff6	*staff5	*staff5	*staff4	*staff4	*staff3	*staff3	*staff2	*staff1
*	*	*group3	*group3	*group2	*	*group2	*	*group2	*	*group2	*	*group1	*group1
*I"Organo	*	*I"Violino Secondo	*I"Violino Primo	*I"Baſso	*	*I"Tenore	*	*I"Alto	*	*I"Canto	*	*I"Clarino Secondo ex D:	*I"Clarino Primo ex D:
*I'org	*	*I'vl 2	*I'vl 1	*I'B	*	*I'T	*	*I'A	*	*I'S	*	*I'clno 2 ex D	*I'clno 1 ex D
*Iorgan	*	*Ivioln	*Ivioln	*Ibass	*	*Itenor	*	*Ialto	*	*Isoprn	*	*Icornt	*Icornt
*ICklav	*	*ICstr	*ICstr	*ICvox	*	*ICvox	*	*ICvox	*	*ICvox	*	*ICbras	*ICbras
*IGcont	*	*IGacmp	*IGacmp	*IGcoro	*	*IGcoro	*	*IGcoro	*	*IGcoro	*	*IGacmp	*IGacmp
*clefF4	*	*clefG2	*clefG2	*clefF4	*	*clefC4	*	*clefC3	*	*clefC1	*	*clefG2	*clefG2
*	*	*	*	*	*	*	*	*	*	*	*	*ITrd-1c-2	*ITrd-1c-2
*k[f#c#]	*	*k[f#c#]	*k[f#c#]	*k[f#c#]	*	*k[f#c#]	*	*k[f#c#]	*	*k[f#c#]	*	*k[f#c#]	*k[f#c#]
*D:	*	*D:	*D:	*D:	*	*D:	*	*D:	*	*D:	*	*D:	*D:
*M2/2	*	*M2/2	*M2/2	*M2/2	*	*M2/2	*	*M2/2	*	*M2/2	*	*M2/2	*M2/2
=1	=1	=1	=1	=1	=1	=1	=1	=1	=1	=1	=1	=1	=1
!	!	!	!	!	!	!	!	!	!	!LO:TX:a:t=12:color=grey	!	!	!LO:TX:t=P:problem:oznaczenie metryczne 2:global
1A|	.	00r	00r	1A	O-	00r	.	00r	.	00r	.	00r	00r
=2	=2	=2	=2	=2	=2	=2	=2	=2	=2	=2	=2	=2	=2
*2\right	*	*	*	*2\right	*	*	*	*	*	*	*	*	*
2F#|\	.	.	.	2F#\	-ſan-	.	.	.	.	.	.	.	.
4B|\	.	.	.	(4B\	-na	.	.	.	.	.	.	.	.
4A|\	.	.	.	4A\)	.	.	.	.	.	.	.	.	.
=3	=3	=3	=3	=3	=3	=3	=3	=3	=3	=3	=3	=3	=3
4G|\	.	.	.	4G\	in	.	.	.	.	.	.	.	.
4E|\	.	.	.	4E\	.	.	.	.	.	.	.	.	.
4A|\	.	.	.	4A\	ex-	.	.	.	.	.	.	.	.
4G|\	.	.	.	4G\	.	.	.	.	.	.	.	.	.
=4	=4	=4	=4	=4	=4	=4	=4	=4	=4	=4	=4	=4	=4
4F#|\	.	.	.	4F#\	-cel-	.	.	.	.	.	.	.	.
4D|\	.	.	.	4D\	.	.	.	.	.	.	.	.	.
4F#|\	.	.	.	4F#\	.	.	.	.	.	.	.	.	.
4G#X|\	.	.	.	4G#X\	.	.	.	.	.	.	.	.	.
=5	=5	=5	=5	=5	=5	=5	=5	=5	=5	=5	=5	=5	=5
*^	*	*	*	*	*	*	*	*	*	*	*	*	*
1d	4A\	.	00r	00r	4A\	-sis	1d	O-	00r	.	00r	.	00r	00r
.	4F#\	.	.	.	4F#\	o-	.	.	.	.	.	.	.	.
.	4E\	.	.	.	4E\	-ſan-	.	.	.	.	.	.	.	.
.	4D\	.	.	.	4D\	-na	.	.	.	.	.	.	.	.
!LO:PB:g=original	!	!	!	!	!LO:LB:g=original	!	!	!	!	!	!	!	!	!
=6	=6	=6	=6	=6	=6	=6	=6	=6	=6	=6	=6	=6	=6	=6
*	*	*	*	*	*	*	*2\right	*	*	*	*	*	*	*
2c#/	4C#\	.	.	.	(4C#/	in	2c#\	-ſan-	.	.	.	.	.	.
.	4AA\	.	.	.	4AA/)	.	.	.	.	.	.	.	.	.
4f#/	2A\	.	.	.	2A\	ex-	(4f#\	-na	.	.	.	.	.	.
4e/	.	.	.	.	.	.	4e\)	.	.	.	.	.	.	.
=7	=7	=7	=7	=7	=7	=7	=7	=7	=7	=7	=7	=7	=7	=7
4d/	2A\	.	.	.	2A\	-cel-	(4d\	in	.	.	.	.	.	.
4B/	.	.	.	.	.	.	4B\)	.	.	.	.	.	.	.
4e/	2G#X\	.	.	.	2G#X\	.	(4e\	ex-	.	.	.	.	.	.
4d/	.	.	.	.	.	.	4d\)	.	.	.	.	.	.	.
=8	=8	=8	=8	=8	=8	=8	=8	=8	=8	=8	=8	=8	=8	=8
4c#/	2A\	.	.	.	2A\	.	(4c#\	-cel-	.	.	.	.	.	.
4A/	.	.	.	.	.	.	4A\	.	.	.	.	.	.	.
4B/	2Gn\	.	.	.	2Gn\	.	4B\	.	.	.	.	.	.	.
4c#/	.	.	.	.	.	.	4c#\)	.	.	.	.	.	.	.
*v	*v	*	*	*	*	*	*	*	*	*	*	*	*	*
=9	=9	=9	=9	=9	=9	=9	=9	=9	=9	=9	=9	=9	=9
2F#\	6	1a	00r	2F#\	-sis	4d\	-sis	1a	O-	00r	.	00r	00r
!	!	!	!	!	!	!LO:LB:g=original	!	!	!	!	!	!	!
.	.	.	.	.	.	4A/	o-	.	.	.	.	.	.
2C#/	6 5	.	.	2C#/	o-	4G/	-ſan-	.	.	.	.	.	.
.	.	.	.	.	.	8F#/L	-na	.	.	.	.	.	.
.	.	.	.	.	.	8E/J	.	.	.	.	.	.	.
=10	=10	=10	=10	=10	=10	=10	=10	=10	=10	=10	=10	=10	=10
*	*	*	*	*	*	*	*	*2\right	*	*	*	*	*
1D	3	2f#/	.	1D	-ſan-	(4F#/	in	2f#\	-ſan-	.	.	.	.
.	.	.	.	.	.	4A/)	.	.	.	.	.	.	.
.	6	4b/	.	.	.	2d\	ex-	(4b\	-na	.	.	.	.
.	5	4a/	.	.	.	.	.	4a\)	.	.	.	.	.
=11	=11	=11	=11	=11	=11	=11	=11	=11	=11	=11	=11	=11	=11
1E	7	4g/	.	1E	-na	2d\	-cel-	(4g\	in	.	.	.	.
.	.	4e/	.	.	.	.	.	4e\)	.	.	.	.	.
.	6 3	4a/	.	.	.	2c#\	.	(4a\	ex-	.	.	.	.
.	.	4g/	.	.	.	.	.	4g\)	.	.	.	.	.
=12	=12	=12	=12	=12	=12	=12	=12	=12	=12	=12	=12	=12	=12
2D\	.	4f#/	.	2D/	in	1d	.	4f#\	-cel-	.	.	.	.
.	.	4d/	.	.	.	.	.	4d\	.	.	.	.	.
2BB/	5	4f#/	.	2BB/	ex-	.	.	4f#\	.	.	.	.	.
.	6\	4g#X/	.	.	.	.	.	4g#X\	.	.	.	.	.
!LO:LB:g=original	!	!	!	!LO:LB:g=original	!	!	!	!	!	!	!	!	!
=13	=13	=13	=13	=13	=13	=13	=13	=13	=13	=13	=13	=13	=13
4AA/	.	4a/	1dd	4AA/	-cel-	4c#\	.	4a\	-sis	1dd	O-	00r	00r
!	!	!	!	!	!	!	!	!LO:LB:g=original	!	!	!	!	!
4D/	3	4f#/	.	4D/	.	4d\	.	4f#\	o-	.	.	.	.
4C#/	3	4e/	.	4C#/	.	2f#\	.	4e\	-ſan-	.	.	.	.
4BB/	3	4d/	.	4BB/	.	.	.	4d\	-na	.	.	.	.
!	!	!LO:LB:g=original	!	!	!	!	!	!	!	!	!	!	!
=14	=14	=14	=14	=14	=14	=14	=14	=14	=14	=14	=14	=14	=14
*	*	*	*2\right	*	*	*	*	*	*	*2\right	*	*	*
2AA/	.	4c#/	2cc#\	2AA/	-sis	2e\	.	4c#/	in	2cc#\	-ſan-	.	.
.	.	4A/	.	.	.	.	.	4A/	ex-	.	.	.	.
2A\	6	2a/	4ff#\	2A\	in	2c#\	.	2a\	-cel-	(4ff#\	-na	.	.
.	5	.	4ee\	.	.	.	.	.	.	4ee\)	.	.	.
!	!	!	!	!	!	!LO:PB:g=original	!	!	!	!	!	!	!
=15	=15	=15	=15	=15	=15	=15	=15	=15	=15	=15	=15	=15	=15
1B	7	2a/	4dd\	1B	ex-	2f#\	.	2a\	.	(4dd\	in	.	.
.	.	.	4b\	.	.	.	.	.	.	4b\)	.	.	.
.	6\ 3	2g#X/	4ee\	.	.	2e\	.	2g#X\	.	(4ee\	ex-	.	.
.	.	.	4dd\	.	.	.	.	.	.	4dd\)	.	.	.
=16	=16	=16	=16	=16	=16	=16	=16	=16	=16	=16	=16	=16	=16
2A\	3_	1a	4cc#\	2A\	-cel-	1e	.	1a	.	(4cc#\	-cel-	.	.
.	.	.	4a\	.	.	.	.	.	.	4a\	.	.	.
2Gn\	.	.	4b\	2Gn\	.	.	.	.	.	4b\	.	.	.
.	.	.	4cc#\	.	.	.	.	.	.	4cc#\)	.	.	.
=17	=17	=17	=17	=17	=17	=17	=17	=17	=17	=17	=17	=17	=17
*	*	*	*	*	*	*	*	*	*	*	*	*2\right	*2\right
2F#\	6	2a/	4dd\	2F#\	.	2d\	-sis	2a\	.	4dd\	-sis	2dd\	2ff#\
!	!	!	!	!	!	!	!	!	!	!LO:LB:g=original	!	!	!
.	.	.	8cc#\L	.	.	.	.	.	.	8cc#\L	in	.	.
.	.	.	8dd\J	.	.	.	.	.	.	(8dd\J	.	.	.
!	!	!	!LO:LB:g=original	!	!	!	!	!	!	!	!	!	!
4E\	6	4gn/	4ee\	4E\	.	2A\	o-	4g\	.	4ee\)	.	4ee\	4gg\
4D\	.	4f#/	4ff#\	4D\	.	.	.	4f#\	.	4ff#\	ex-	4dd\	4ff#\
=18	=18	=18	=18	=18	=18	=18	=18	=18	=18	=18	=18	=18	=18
4C#/	6_ 5_	4e/	2.gg\	4C#/	.	1A	-ſan-	4e\	.	1gg	-cel-	1a	1ee
4AA/	.	4c#/	.	4AA/	.	.	.	4c#\	.	.	.	.	.
4BB/	.	4d/	.	4BB/	.	.	.	4d\	.	.	.	.	.
4C#/	.	4e/	8aa\L	4C#/	.	.	.	4e\	.	.	.	.	.
.	.	.	8gg\J	.	.	.	.	.	.	.	.	.	.
!	!	!	!	!	!	!	!	!LO:LB:g=original	!	!	!	!	!
=19	=19	=19	=19	=19	=19	=19	=19	=19	=19	=19	=19	=19	=19
1D	x	2.f#/	4ff#\	1D	.	1A	-na	2.f#\	-sis	4ff#\	.	1dd	1ff#
.	.	.	4ee\	.	.	.	.	.	.	4ee\	.	.	.
.	.	.	4dd\	.	.	.	.	.	.	4dd\	.	.	.
.	.	4a/	4ff#\	.	.	.	.	(4a\	in	4ff#\	.	.	.
=20	=20	=20	=20	=20	=20	=20	=20	=20	=20	=20	=20	=20	=20
2D/	4 2	4g/	1ee	2D/	.	2B\	in	4g\)	.	1ee	.	2dd\	1ee
.	.	4e/	.	.	.	.	.	4e\	ex-	.	.	.	.
2C#/	6 5	4a/	.	2C#/	.	2A\	ex-	4a\	-cel-	.	.	2a/	.
.	.	4g/	.	.	.	.	.	4g\	.	.	.	.	.
!LO:LB:g=original	!	!LO:LB:g=original	!	!LO:LB:g=original	!	!	!	!	!	!	!	!	!
=21	=21	=21	=21	=21	=21	=21	=21	=21	=21	=21	=21	=21	=21
4D\	.	2f#/	4ff#\	4D\	.	2A\	-cel-	2f#\	.	4ff#\	-sis	1dd	1ff#
8E\L	.	.	4dd\	8E\L	.	.	.	.	.	(4dd\	in	.	.
8F#\J	6	.	.	8F#\J	.	.	.	.	.	.	.	.	.
4E\	6	2a/	4cc#\	4E\	.	2d\	.	4g\	.	4cc#\)	.	.	.
4D\	.	.	4dd\	4D\	.	.	.	4a\	.	4dd\	ex-	.	.
=22	=22	=22	=22	=22	=22	=22	=22	=22	=22	=22	=22	=22	=22
4C#/	6 5	1a	2ee\	4C#/	.	1c#	.	1a	.	2ee\	-cel-	2a/	2ee\
4AA/	.	.	.	4AA/	-sis	.	.	.	.	.	.	.	.
2A\	.	.	4ff#\	2A\	o-	.	.	.	.	4ff#\	.	2r	2r
.	.	.	4ee\	.	.	.	.	.	.	4ee\	.	.	.
!	!	!	!	!	!	!	!	!	!	!LO:LB:g=original	!	!	!
=23	=23	=23	=23	=23	=23	=23	=23	=23	=23	=23	=23	=23	=23
2F#\	6	2a/	1dd	2F#\	-ſan-	1d	.	2a\	.	1dd	.	2r	2r
4B\	3_	2f#/	.	4B\	-na	.	.	2f#\	.	.	.	2dd\	2ff#\
4A\	.	.	.	4A\	.	.	.	.	.	.	.	.	.
!	!	!	!LO:LB:g=original	!	!	!LO:LB:g=original	!	!	!	!	!	!LO:LB:g=original	!LO:LB:g=original
=24	=24	=24	=24	=24	=24	=24	=24	=24	=24	=24	=24	=24	=24
4G\	6 5	1e	2dd\	4G\	in	2B\	.	1e	.	2dd\	.	2dd\	1ee
4E\	.	.	.	4E\	.	.	.	.	.	.	.	.	.
4A\	3_	.	2cc#\	4A\	ex-	2A\	.	.	.	2cc#\	.	2a/	.
4G\	.	.	.	4G\	.	.	.	.	.	.	.	.	.
=25	=25	=25	=25	=25	=25	=25	=25	=25	=25	=25	=25	=25	=25
4F#\	6_	1f#	1dd	4F#\	-cel-	2.A\	.	1f#	.	1dd	.	1f#	1dd
4D\	.	.	.	4D\	.	.	.	.	.	.	.	.	.
4F#\	.	.	.	4F#\	.	.	.	.	.	.	.	.	.
4G#X\	.	.	.	4G#X\	.	4B\	.	.	.	.	.	.	.
!	!	!	!	!	!	!	!	!LO:LB:g=original	!	!	!	!	!
=26	=26	=26	=26	=26	=26	=26	=26	=26	=26	=26	=26	=26	=26
1A|	x	4e/	4cc#\	1A	.	2A\	.	4e\	.	4cc#\	.	2a/	2ee\
.	.	4c#/	4a\	.	.	.	.	4c#\	.	4a\	-sis	.	.
.	.	4f#/	2dd\	.	.	4d\	.	4f#\	.	2dd\	o-	2dd\	2ff#\
.	.	4d/	.	.	.	4f#\	.	4d\	.	.	.	.	.
!LO:LB:g=original	!	!	!	!LO:LB:g=original	!	!	!	!	!	!	!	!	!
=27	=27	=27	=27	=27	=27	=27	=27	=27	=27	=27	=27	=27	=27
1A	.	4c#/	2cc#\	1A	.	2e\	.	4c#\	.	2cc#\	-ſan-	1a	2ee\
.	.	4e/	.	.	.	.	.	4e\	-sis	.	.	.	.
!	!	!	!	!	!	!	!	!LO:SIC:v:l:s=O-	!	!	!	!	!
.	.	2a/	4ff#\	.	.	2d\	-sis	2a\	Oſ-	(4ff#\	-na	.	2aa\
.	.	.	4ee\	.	.	.	.	.	.	4ee\)	.	.	.
=28	=28	=28	=28	=28	=28	=28	=28	=28	=28	=28	=28	=28	=28
1A	.	2a/	4dd\	1A	.	1e	in	2a\	-san-	(4dd\	in	2ff#\	2aa\
.	.	.	4b\	.	.	.	.	.	.	4b\)	.	.	.
.	.	2g#X/	4ee\	.	.	.	.	2g#X\	-na	(4ee\	ex-	2ee\	2gg#X\
.	.	.	4dd\	.	.	.	.	.	.	4dd\)	.	.	.
!	!	!LO:LB:g=original	!	!	!	!	!	!	!	!LO:LB:g=original	!	!	!
=29	=29	=29	=29	=29	=29	=29	=29	=29	=29	=29	=29	=29	=29
1A	.	2a/	4cc#\	1A	.	1e	ex-	2a\	in	4cc#\	-cel-	1a	1aa
.	.	.	4a\	.	.	.	.	.	.	4a\	.	.	.
.	.	2gn/	4b\	.	.	.	.	2gn\	ex-	4b\	.	.	.
.	.	.	4cc#\	.	.	.	.	.	.	4cc#\	.	.	.
=30	=30	=30	=30	=30	=30	=30	=30	=30	=30	=30	=30	=30	=30
2D\	.	2f#/	2dd\	2D\	-sis	2d\	-cel-	1f#	-cel-	2dd\	-sis	1dd	2aa\
*	*	*2\right	*	*	*	*	*	*	*	*	*	*	*
2B\	.	2dd\	2ff#\	2B\	ex-	2B\	.	.	.	2dd\	ex-	.	2ff#\
=31	=31	=31	=31	=31	=31	=31	=31	=31	=31	=31	=31	=31	=31
2G\	6 5	2dd\	2ee\	2G\	-cel-	2B\	.	1e	.	2dd\	-cel-	2dd\	1ee
2A\	.	2cc#\	2ee 2a\	2A\	.	2A\	.	.	.	2cc#\	.	2a/	.
=32	=32	=32	=32	=32	=32	=32	=32	=32	=32	=32	=32	=32	=32
2D\	.	2dd\	2ff# 2a 2d\	2D\	-sis	1A	-sis	2f#\	-sis	2dd\	-sis	2f#/	2dd\
!	!	!	!LO:TX:b:i:t=Volti Agnus	!	!	!	!	!	!	!	!	!	!
2r	.	2r	2r	2r	.	.	.	2r	.	2r	.	2r	2r
==	==	==	==	==	==	==	==	==	==	==	==	==	==
*-	*-	*-	*-	*-	*-	*-	*-	*-	*-	*-	*-	*-	*-
!!!system-decoration: [(g1)][(g2)][(g3)]<s9>
!!!RDF**kern: > = above
!!!RDF**kern: < = below
!!!RDF**kern: | = vertical stroke
!!!ENC: Marta Chmielewska
!!!END: 2020-07-07
!!!ENC: Andrzej Kubiczek
!!!END: 2021-11-21
